X: 191
T: Aviemore Slopes
C: Bert Murray
R: air, 3/4 march, waltz
B: Bert Murray's "Bon Accord Collection" 1999 p.18
Z: 2011 John Chambers <jc:trillian.mit.edu>
M: 3/4
L: 1/8
K: A
|: vA>B |\
c2 c2 B>c | BA A2 (A>B) | c2 e2 a>e | f4 a>f |\
e2 c2 c>B | BA A2 A>B | c2 c2 B>c | A4 :|
|: (c>d) |\
e2 e2 c>e | fe e2 (e>c) | A2 A>B cA | B4 c>d |\
e2 e2 a>e | fe e2 (a>f) | e2 c2 B>c | A4 :|

%%sep 2 1 500

